X:1
T:He Has Given Us His Promises
T:William Augustine Ogden, 1887
T:He Has Given Us His Promises
T:Public Domain
T:Public Domain
T:Public Domain
C:William Augustine Ogden, 1887
Z:Public Domain
%%score ( 1 2 ) ( 3 4 )
L:1/8
M:4/4
K:Bb
V:1 treble 
V:2 treble 
V:3 bass 
V:4 bass 
V:1
 [DF]>[DF] | [DB]2 [DB]2 (DE) [FB]>[Gc] | [FB]2 [FA]2 [FA]2 [FA]>[FB] | %3
w: 1.~God’s great|power di- vine * now has|en us All we need|
w: 2.~To your|faith add good- * ness and|ledge true, Then add self-|
w: 3.~If you|have these traits * in in-|ing store, They will keep|
w: 4.~An- y|per- son lack- * ing these|i- ties Is near- sight-|
w: 5.~So be|ea- ger now; * make your|ing sure. If you do|
 [FA]2 [EG]2 [EG]2 [EG]>[EB] | [EG]2 [DF]2 [DF]2 [DF]>[DB] | [Fd]2 [Fd]2 [Fd]2 [Ge]>[Fd] | %6
w: for life and true god-|li- ness, Through our know-|ing Him who has call-|
w: con- trol, per- se- ver-|ance, too. Then add god-|li- ness, kind- ness, then|
w: you from un- pro- duc-|tive lore. You’ll ef- fect-|ive be know- ing Christ|
w: ed, blind, and he does|not see. He’s for- got-|ten he from his sin|
w: these things, you will fall|no more. You’ll be wel-|comed rich- ly by Christ|
 [Ec]2 [EG]2 (cB)[FA][EG] | [DF]2 [DF]2 [CF][CF] [EG]>[EA] | [Ec]>[DB] [DB]4 ||"^Refrain" F>F | %10
w: èd us And * for His|glo- ry giv- en prom- is-|es. * *||
w: add, too, Love * to all,|firm- ing God’s great prom- is-|es. * *||
w: our Lord, Be- * cause God|give- n us His prom- is-|es. He has|giv- en|
w: is free And * that God|giv- en us His prom- is-|es. * *||
w: our Lord A- * nd gain|king- dom, through His prom- is-|es. * *||
 [DB]4- [DB][Fd] [Ec]>[DB] | [EB]>[EA] [EA]4 [EA]>D | [Ec-]4 [Ec][Ge] [Fd]>[Ec] | %13
w: |||
w: |||
w: prom- * is- es, Ve-|ry great and pre- cious|prom- is- es, So we’ll|
w: |||
w: |||
 [Ec]>[DB] [DB]4 [DB]>[Ec] | [Fd]2 [F_Af]2 [FAf]2 [Fd]>[Fd] | [Ec]2 [EG]2 (cB)[FA][EG] | %16
w: |||
w: |||
w: be like Him, cleansed from|all past sin. Yes, our|God has giv- * en us|
w: |||
w: |||
 [DF]2 [DF]2 [CF][CF] [EG]>[EA] | [Ec]>[DB] [DB]4 |] %18
w: ||
w: ||
w: prom- is- es. * * *||
w: ||
w: ||
V:2
 x2 | x4 B2 x2 | x8 | x8 | x8 | x8 | x4 G2 x2 | x8 | x6 || F>F | x8 | x8 | x8 | x8 | x8 | %15
w: |giv-|||||own|||||||||
w: |know-|||||con-|||||||||
w: |creas-|||||has|||us His||||||
w: |qual-|||||has|||||||||
w: |call-|||||His|||||||||
 x4 G2 x2 | x8 | x6 |] %18
w: |||
w: |||
w: His|||
w: |||
w: |||
V:3
 [B,,B,]>[B,,B,] | [B,,F,]2 [B,,F,]2 (B,,C,) [D,B,]>[E,E] | [F,D]2 [F,C]2 [F,C]2 [F,C]>[F,D] | %3
 [F,C]2 [F,C]2 [F,C]2 [F,A,]>[F,A,] | [B,,B,]2 [B,,B,]2 [B,,B,]2 [B,,B,]>[B,,B,] | %5
 [B,,B,]2 [B,,B,]2 [B,,B,]2 [B,,B,]>[B,,B,] | [E,G,]2 [E,C]2 [E,E]2 [E,B,]2 | %7
 [F,B,]2 [F,B,]2 [F,A,][F,A,] [F,C]>F, | [B,,F,]>[B,,B,] [B,,B,]4 || [B,,F,]>F, | %10
 ([B,,F,]>[B,,F,] [B,,F,]>[B,,F,] [B,,F,]>)[B,,F,] [B,,F,]>[B,,B,] | %11
 [F,C]>[F,C] [F,C]4 [F,C]>[F,B,] | %12
 ([B,,F,]>[B,,F,] [B,,F,]>[B,,F,] [B,,F,]>)[B,,F,] [B,,F,]>[B,,F,] | %13
 [B,,F,]>[B,,B,] [B,,B,]4 [B,,B,]>[B,,B,] | [B,,B,]2 [B,,D]2 [B,,D]2 [B,,B,]>[B,,B,] | %15
 [E,G,]2 [E,C]2 [E,E]2 [E,B,]2 | [F,B,]2 [F,B,]2 [F,A,][F,A,] [F,C]>F, | %17
 [B,,F,]>[B,,B,] [B,,B,]4 |] %18
V:4
 x2 | x4 B,2 x2 | x8 | x8 | x8 | x8 | x8 | x15/2 F,/ | x6 || x2 | x8 | x8 | x8 | x8 | x8 | x8 | %16
 x8 | x6 |] %18

